X: 1
T: A Mabou
R: strathspey
M: 4/4
L: 1/8
K: Dmaj
B|A>Bde d<BAF|E>FG>A B<EE>B|A<Bd>e d<BA>F|A>Bd>e f<dd:|
e|d<ef<g|aba>f|d>ef>a b>e e<f|d>efg|a<ba>f|e<fd>e f>dd>e|
d<ef>g a<ba>f|d>ef>a b<ee>g|f<de<f d>BA>F|A>Bd>e f<dd||

